X: 863
T: Gönlüm Yine Bir Âteş-i Hicrâne...
C: Şeyh Ethem Efendi
O: Turkey
F: http://compmusic.upf.edu/node/140
N: nihavent--sarki--aksak--gonlum_yine--seyh_ethem_efendi
N: makam= nihavent
N: form= sarki
N: usul= aksak = 9/8
M: 9/8
L: 1/16
K: C _B _e  
Q: 1/4=114
%%MIDI tuningsystem comma53
G3A B2c2 d2e2 ^f2g2 a2 | ^fg abag gffe edd4z2  | 
w:  ARANAĞME  |   | 
g3^f e2g2 f3e d4 f2 | e3dc4=Bc dBc4z2  | \
w:   |   | 
BABc dcde f_1/4ef_a gf_ed cB | 
w:   | 
AB cedc BAAG G^FG4z2  | G3A B2c2 d2e2 ^f2g2 a2 | 
w:   |  ARANAĞME  | 
^fg abag gffe edd4z2  | g3^f e2g2 f3e d4 f2 | 
w:   |   | 
e3dc4=Bc dBc4z2  | BABc dcde f_1/4ef_a gf_ed cB | 
w:   |   | 
AB cedc BAAG G^FG4z2  | G3A B2{c}BA AGG^F G4 z2 | 
w:   |  Gön *  lüm  *  *  *  yi *  ne  *  bir   | 
c3def edd3cdc BAB2  | c3d efed d3c dcBc de | 
w:  â *  teş_ *  i  *  hic  |  râ *  ne  *  do *  laş  | 
c2 d4 fed3/2c/ BAG4z2  | G3A B2{c}BA AGG^F G4 z2 | 
w:  tı   *  SAZ  |  Gön *  lüm  *  *  *  yi *  ne  *  bir   | 
c3def edd3cdc BAB2  | c3d efed d3c dcBc de | 
w:  â *  teş_ *  i  *  hic  |  râ *  ne  *  do *  laş  | 
c2 d4 fedc Bcd4z2  | g4 d4 c2{e}dc Bcde fg | 
w:  tı   *  SAZ  |  Sev dâ yı  *  mu *  hab  | 
fg2ffe edd3cdc BAG2  | ABAB c2d2 B3/2A/G2 A2B2 AG | 
w:  bet  *  *  ba *  şı *  ma   |  gör  *  *  *  ne ler_ aç  | 
G6 dedc Bcd6  | g4 d4 c2{e}dc Bcde fg | \
w:  tı   SAZ  |  Sev dâ yı  *  mu *  hab  | 
fg2ffe edd3cdc BAG2  | 
w:  bet  *  *  ba *  şı *  ma   | 
ABAB c2d2 B3/2A/G2 A2B2 AG | G6 f_7/8gf_1/4e def6  | 
w:  gör  *  *  *  ne ler_ aç  |  tı   SAZ  | 
_1/4e4 f3_7/8g feed d6 | a3_7/8gf2 g2f_1/4e edd2 {e}dedc  | 
w:  Bu  hâl_ *  i  *  pe *  rî  |  şâ *  nı ma  düş  | 
d_1/4e2d a_7/8ggf fgfe def2 {f}ed | \
w:  man  *  *  bi *  le  *  şaş  | 
d6 fedc Bcd4z2  | 
w:  tı   SAZ  | 
g4 d4 c2{e}dc Bcde fg | fg2ffe edd3cdc BAG2  | 
w:  Sev dâ yı  *  mu *  hab  |  bet  *  *  ba *  şı *  ma   | 
ABAB c2d2 B3/2A/G2 A2B2 AG | G6 dedc Bcd6  | 
w:  gör  *  *  *  ne ler_ aç  |  tı   SAZ  | 
g4 d4 c2{e}dc Bcde fg | fg2ffe edd3cdc BAG2  | 
w:  Sev dâ yı  *  mu *  hab  |  bet  *  *  ba *  şı *  ma   | 
ABAB c2d2 B3/2A/G2 A2B2 AG | G6 |
w:  gör  *  *  *  ne ler_ aç  |  tı    | 


